svg/fluentui-system-icons/ic_fluent_document_dismiss_20_regular.svg

<svg width="20" height="20" viewBox="0 0 20 20" fill="none" xmlns="http://www.w3.org/2000/svg">
<path d="M6 2C4.89543 2 4 2.89543 4 4V9.20703C4.32228 9.11588 4.65659 9.05337 5 9.02242V4C5 3.44772 5.44772 3 6 3H10V6.5C10 7.32843 10.6716 8 11.5 8H15V16C15 16.5523 14.5523 17 14 17H10.4003C10.2174 17.3578 9.99647 17.6929 9.74284 18H14C15.1046 18 16 17.1046 16 16V7.41421C16 7.01639 15.842 6.63486 15.5607 6.35355L11.6464 2.43934C11.3651 2.15804 10.9836 2 10.5858 2H6ZM14.7929 7H11.5C11.2239 7 11 6.77614 11 6.5V3.20711L14.7929 7ZM8.68198 17.682C10.4393 15.9246 10.4393 13.0754 8.68198 11.318C6.92462 9.56066 4.07538 9.56066 2.31802 11.318C0.56066 13.0754 0.56066 15.9246 2.31802 17.682C4.07538 19.4393 6.92462 19.4393 8.68198 17.682ZM3.73202 12.7324C3.92729 12.5371 4.24387 12.5371 4.43913 12.7324L5.49969 13.7929L6.56062 12.732C6.75588 12.5367 7.07246 12.5367 7.26773 12.732C7.46299 12.9273 7.46299 13.2439 7.26773 13.4391L6.20679 14.5L7.26756 15.5608C7.46282 15.7561 7.46282 16.0727 7.26756 16.2679C7.0723 16.4632 6.75571 16.4632 6.56045 16.2679L5.49969 15.2072L4.4393 16.2675C4.24404 16.4628 3.92745 16.4628 3.73219 16.2675C3.53693 16.0723 3.53693 15.7557 3.73219 15.5604L4.79258 14.5L3.73202 13.4395C3.53676 13.2442 3.53676 12.9276 3.73202 12.7324Z" fill="#212121"/>
</svg>

<svg xmlns="http://www.w3.org/2000/svg" width="20" height="20"><path d="M6 2a2 2 0 0 0-2 2v5.207a5.48 5.48 0 0 1 1-.185V4a1 1 0 0 1 1-1h4v3.5A1.5 1.5 0 0 0 11.5 8H15v8a1 1 0 0 1-1 1h-3.6a5.507 5.507 0 0 1-.657 1H14a2 2 0 0 0 2-2V7.414a1.5 1.5 0 0 0-.44-1.06l-3.914-3.915A1.5 1.5 0 0 0 10.586 2H6Zm8.793 5H11.5a.5.5 0 0 1-.5-.5V3.207L14.793 7ZM8.682 17.682a4.5 4.5 0 1 0-6.364-6.364 4.5 4.5 0 0 0 6.364 6.364Zm-4.95-4.95a.5.5 0 0 1 .707 0l1.06 1.06 1.062-1.06a.5.5 0 1 1 .707.707L6.207 14.5l1.06 1.06a.5.5 0 1 1-.707.708l-1.06-1.06-1.06 1.06a.5.5 0 1 1-.708-.708l1.06-1.06-1.06-1.06a.5.5 0 0 1 0-.708Z"/></svg>
